X: 1
T: Sunny, Shiny Forest Revised
M: 4/4
L: 1/4
Q: 1/4=160
K: A major
V:1
%%MIDI gchord c2c2
| "A" ceeA | "D" df^cd | "Bm" eA^ce | "E7" ^G2e2 | % measure 1-4
| "A" aece | "F#m" f^fed | "D" dBA^G | "A" A2 z2 | % measure 5-8
| "D" d2 fd | "C#m" e^ceg | "Bm" bABc | "E7" e4 | % measure 9-12
| "A" c'ba^g | "D" afed | "A/C#" cBA^G | "A" A4 | % measure 13-16
```

# Output  
Output the full ABC notation including all 16 measures with the appropriate instrument settings using `%%MIDI` directives in a code block.

# Knowledge  

To specify instruments, use the following `%%MIDI` directives. These correspond to General MIDI standard instruments:

- To set the melody instrument (e.g., Acoustic Grand Piano is program 1):  
  `%%MIDI program 1`

- To set the chord instrument (e.g., Synth Brass 2 is program 64):  
  `%%MIDI chordprog 64`

- To set the bass instrument (e.g., Pizzicato Strings is program 45):  
  `%%MIDI bassprog 45`

Use these to define the instruments for each 4-measure block.  
Do **not** use any other MIDI directives (e.g., `padprog`, `drumprog`, etc.).

# Examples

```abc
